images/brands-espn.svg

<?xml version="1.0" encoding="UTF-8" standalone="no"?>
<svg width="132px" height="37px" viewBox="0 0 132 37" version="1.1" xmlns="http://www.w3.org/2000/svg" xmlns:xlink="http://www.w3.org/1999/xlink" xmlns:sketch="http://www.bohemiancoding.com/sketch/ns">
    <!-- Generator: Sketch 3.4.4 (17249) - http://www.bohemiancoding.com/sketch -->
    <title>ESPN_wordmark</title>
    <desc>Created with Sketch.</desc>
    <defs></defs>
    <g id="landing" stroke="none" stroke-width="1" fill="none" fill-rule="evenodd" sketch:type="MSPage">
        <g id="landing_page" sketch:type="MSArtboardGroup" transform="translate(-65.000000, -2664.000000)" fill="#F2EBEB">
            <g id="portfolio" sketch:type="MSLayerGroup" transform="translate(-1.000000, 1536.000000)">
                <g id="brands" transform="translate(1.000000, 969.000000)" sketch:type="MSShapeGroup">
                    <g id="brand-logos" transform="translate(65.000000, 150.000000)">
                        <g id="ESPN_wordmark" transform="translate(0.000000, 9.000000)">
                            <path d="M4.13442375,0.0164088706 L32.4824049,0.0164088706 L31.2799629,10.3194973 L2.9813972,10.3194973 L4.13442375,0.0164088706 Z M2.47077116,14.1076665 L30.8516959,14.1076665 L29.9786901,22.4892198 L12.2385532,22.4892198 L11.7773425,26.4969931 L29.5504231,26.4969931 L28.446812,36.0680681 L0,36.0680681 L2.47077116,14.1076665 Z M32.9436155,10.3194973 C32.9436155,10.3194973 33.1412772,6.80583302 33.931924,4.97579956 C34.6731553,3.2555681 35.6614638,2.01114535 37.3251164,0.968026272 C38.3134249,0.382415563 40.0759083,0.0164088706 40.0759083,0.0164088706 L91.1385123,0.0164088706 C91.1385123,0.0164088706 93.2798474,0.0530095399 94.2022686,0.473917236 C95.1905771,0.931425602 96.6236243,1.60853798 97.3813275,3.65817546 C98.1225588,5.61631127 97.9743126,6.25682298 97.9743126,8.21495879 C97.9743126,10.1364939 97.9248971,10.3194973 97.9248971,10.3194973 L32.9436155,10.3194973 Z M32.4824049,14.1991682 L58.606692,14.1991682 C58.606692,14.1991682 60.9292169,14.1991682 61.9998844,14.9128813 C63.1199673,15.7363963 63.6305934,16.7429147 63.9600295,18.3350438 C64.2729939,19.927173 63.3999881,27.9610199 62.889362,29.9191557 C62.3293206,31.8406908 61.6704483,33.6524239 58.9690718,35.1530514 C56.547716,36.5255765 52.8745029,36.0680681 52.8745029,36.0680681 L30.3081263,36.0680681 L31.6423427,26.4969931 L52.7756721,26.4969931 L53.2039391,22.4343188 L38.6263892,22.4343188 C38.6263892,22.4343188 36.2544489,22.8003255 34.0307548,20.6591863 C32.6800666,19.3781629 32.5318203,17.4200271 32.4494613,16.5599114 C32.3506304,16.0658023 32.4824049,14.1991682 32.4824049,14.1991682 L32.4824049,14.1991682 Z M66.4637443,14.1991682 L97.2824966,14.1991682 C97.2824966,14.1991682 97.0024759,18.1520405 96.1624137,19.5611663 C95.3223515,21.025193 94.5811202,21.8121074 93.1810165,22.1598138 C91.7479692,22.5258205 89.6066342,22.5258205 89.6066342,22.5258205 L76.1985827,22.5258205 L74.798479,36.0680681 L64.0423886,36.0680681 L66.4637443,14.1991682 Z M99.3744162,10.4109989 L131.395611,10.4109989 C131.395611,10.4109989 132.005067,7.29994206 131.675631,5.34180625 C131.346195,3.38367044 130.555548,2.06604635 129.254276,1.11442895 C127.541207,-0.22149548 124.411564,0.0164088706 124.460979,0.0164088706 L100.675689,0.0164088706 L99.3744162,10.4109989 Z M98.962621,14.1991682 L109.570465,14.1991682 L107.149109,36.0680681 L96.6236243,36.0680681 L98.962621,14.1991682 Z M120.27714,14.2906699 L130.786154,14.2906699 L128.364798,36.0680681 L117.9052,36.0680681 L120.27714,14.2906699 Z" id="Shape"></path>
                        </g>
                    </g>
                </g>
            </g>
        </g>
    </g>
</svg>

<svg width="132" height="37" viewBox="0 0 132 37" xmlns="http://www.w3.org/2000/svg"><title>ESPN_wordmark</title><path d="M4.134.016h28.348L31.28 10.32H2.98L4.135.015zM2.47 14.108h28.382l-.873 8.38H12.24l-.463 4.01H29.55l-1.103 9.57H0l2.47-21.96zm30.474-3.79s.197-3.512.988-5.342c.74-1.72 1.73-2.965 3.393-4.008.988-.586 2.75-.952 2.75-.952H91.14s2.14.037 3.062.458c.99.457 2.422 1.135 3.18 3.184.74 1.958.592 2.6.592 4.557 0 1.92-.05 2.104-.05 2.104h-64.98zm-.462 3.88h26.125s2.322 0 3.393.715c1.12.823 1.63 1.83 1.96 3.422.313 1.592-.56 9.626-1.07 11.584-.56 1.92-1.22 3.732-3.92 5.233-2.422 1.373-6.095.915-6.095.915H30.308l1.334-9.57h21.134l.428-4.064H38.626s-2.372.366-4.595-1.775c-1.35-1.282-1.498-3.24-1.58-4.1-.1-.494.032-2.36.032-2.36zm33.982 0h30.818s-.28 3.954-1.12 5.363c-.84 1.465-1.58 2.252-2.98 2.6-1.434.366-3.575.366-3.575.366H76.2l-1.402 13.542H64.042l2.422-21.87zm32.91-3.787h32.022s.61-3.11.28-5.068c-.33-1.958-1.12-3.276-2.422-4.228C127.54-.22 124.412.016 124.46.016h-23.784L99.374 10.41zm-.41 3.79h10.606l-2.42 21.868H96.623l2.34-21.87zm21.313.09h10.51l-2.422 21.778h-10.46l2.372-21.777z" fill="#F2EBEB" fill-rule="evenodd"/></svg>
